X:1
T:Title
%%score { ( 1 4 5 ) | ( 2 3 ) }
L:1/8
Q:1/4=100
M:4/4
K:Eb
V:1 treble nm="Grand Piano"
V:4 treble 
V:5 treble 
V:2 bass 
V:3 bass 
V:1
 [EGB]2 [DFB]2 [CEB]2 [CEA]2 | [B,EG]3 [CEA] [B,EG]2 [A,DF]2 | [G,CE]2 [B,F]2 [B,EG]2 [B,EA]2 | %3
w: Lewis~S.~Chafer * * *|||
 .[EB]2 [CEc]2 [DF]4 | [DF]2 [B,DF]2 [CEF]3 [CF] | [=A,CG]2 [A,CF]2 [B,DF]2 [B,DB]2 | %6
w: |||
 [B,Dd]2 [C_Gd]2 [D=Gd]3 [E_Gc] |[M:9/8] [DGB]2 [CD=A]- [CDA] G2 B3 | %8
w: ||
[M:4/4] [EGB]2 [DFB]2 [CEB]2 [CEA]2 | [B,EG]3 [CEA] [B,EG]2 [A,DF]2 | E2 F2 G2 A2 | B2 c2 z4 | %12
w: ||||
 G2 [GB]2 [F=B]3 [FB] | [CEc]2 [EGc]2 [FGd]2 d2 | z4 e4[K:bass][K:treble] | B2 z2 z4 |] %16
w: ||||
V:2
 E,2 E,2 E,2 E,2 | E,3 A,, B,,2 =B,,2 | C,2 D,2 E,2 F,2 | z DA,G, B,4 | B,2 F,2 =A,2 z A, | %5
 E,2 E,2 D,2 B,,2 | G,,2 =A,,2 B,,3 C, |[M:9/8] D,2 _G,- G, =G,2 F,3 |[M:4/4] E,2 E,2 E,2 E,2 | %9
 E,3 A,, B,,2 =B,,2 | [C,G,C]2 [D,B,]2 [E,B,E]2 [F,B,E]2 | .[G,E]2 .[A,CE]2 [B,D]4 | %12
 [E,B,E]2 [E,B,]2 G,3 D | C,2 C,2 =B,,2[K:treble] [=B,FG]2 | [CEG]2 [B,_DG]2 [CA]3[K:bass] [F,E] | %15
 [B,,G,]2 [B,,A,B,]2 [E,G,B,]4 |] %16
V:3
 x8 | x8 | x8 | G,2 z2 z4 | z4 z2 F,2 | x8 | x8 |[M:9/8] x9 |[M:4/4] x8 | x8 | x8 | x8 | %12
 z4 D,2 G,,2 | x6[K:treble] x2 | z4 A,2 z2[K:bass] | x8 |] %16
V:4
 x8 | x8 | x8 | x8 | x8 | x8 | x8 |[M:9/8] z3 z [B,D]2- [B,D]3 |[M:4/4] x8 | x8 | x8 | %11
 z D z =A, F4 | x8 | x8 | e2 e2 z2[K:bass] z[K:treble] c | EB, D2 E4 |] %16
V:5
 x8 | x8 | x8 | x8 | x8 | x8 | x8 |[M:9/8] x9 |[M:4/4] x8 | x8 | x8 | x8 | x8 | x8 | %14
 z4 z2[K:bass] A,,2[K:treble] | x8 |] %16

